symbols/web/mark_as_unread/materialsymbolsoutlined/mark_as_unread_wght300gradN25fill1_20px.svg

<svg xmlns="http://www.w3.org/2000/svg" height="20" width="20"><path d="M3.375 13.812q-.521-.041-.885-.427-.365-.385-.365-.947V6.021q0-.292.135-.521.136-.229.407-.375l6.208-3.083 6.063 3.083q.208.125.354.354.146.229.208.459h-1.729l-4.896-2.5-5.5 2.77Zm2.937 3.105q-.624 0-1.062-.438-.438-.437-.438-1.062V8.583q0-.625.438-1.062.438-.438 1.062-.438h10.063q.625 0 1.063.438.437.437.437 1.062v6.834q0 .625-.437 1.062-.438.438-1.063.438Zm5.042-4.584 5.271-2.729q0-.354-.031-.614l-.073-.594-5.167 2.687-5.187-2.687q-.042.333-.073.594-.032.26-.032.614Z"/></svg>

<svg xmlns="http://www.w3.org/2000/svg" height="20" width="20"><path d="M3.375 13.812Q2.854 13.771 2.49 13.385Q2.125 13 2.125 12.438V6.021Q2.125 5.729 2.26 5.5Q2.396 5.271 2.667 5.125L8.875 2.042L14.938 5.125Q15.146 5.25 15.292 5.479Q15.438 5.708 15.5 5.938H13.771L8.875 3.438L3.375 6.208ZM6.312 16.917Q5.688 16.917 5.25 16.479Q4.812 16.042 4.812 15.417V8.583Q4.812 7.958 5.25 7.521Q5.688 7.083 6.312 7.083H16.375Q17 7.083 17.438 7.521Q17.875 7.958 17.875 8.583V15.417Q17.875 16.042 17.438 16.479Q17 16.917 16.375 16.917ZM11.354 12.333 16.625 9.604Q16.625 9.25 16.594 8.99Q16.562 8.729 16.521 8.396L11.354 11.083L6.167 8.396Q6.125 8.729 6.094 8.99Q6.062 9.25 6.062 9.604Z"/></svg>
